X: 1
T: THREE LITTLE DRUMMERS' -- JIG
B: Ryan's Mammoth Collection of Fiddle Tunes
R: jig
M: 6/8
L: 1/8
Z: Contributed 20010527161414 by John Chambers jc:trillian.mit.edu
K: Amix
uA \
| eAA eAA | BAG Bcd | eAA eAA | def g2f \
| eAA eAA | BAG Bcd | eaf g2f | eAA A2 :|
|: ue \
| eaa {b}a^ga | e=gg {a}gfg | eaa eaa | def gdB \
| eaa {b}a^ga | e=gg    g2e | def gdc | BAA A2 :|
